X: 159
T: la Toque Bleu
C:
R: reel
B: NEFR #159
Z: 2012 John Chambers <jc:trillian.mit.edu>
M: C|
L: 1/8
K: G
|: "G"d2 BG d2 BG | "D7"FG AB cB AG | "G"d2 BG d2BG | "D7"FG AF "G"G4 :|
|: "G"G2 GG "(D7)"FG AB | "D7"cA dc Bc AF | "G"G2 GG BG dc | "D7"Bc AF "G"G4 :|
